packages/calcite-ui-icons/icons/livestream-video-protocols-32.svg

<?xml version="1.0" encoding="UTF-8"?><svg id="icons" xmlns="http://www.w3.org/2000/svg" viewBox="0 0 32 32"><defs><style>.cls-1{fill:none;}.cls-2{fill:#231f20;}</style></defs><rect class="cls-1" width="32" height="32"/><path class="cls-2" d="M25.90002,16.5c0,2.51141-.99603,4.79065-2.60657,6.47864l-.6925-.7962c1.39069-1.49207,2.24902-3.48657,2.24902-5.68243,0-2.66791-1.26221-5.04156-3.21564-6.57123l.6897-.79291c2.17432,1.72333,3.57599,4.38098,3.57599,7.36414ZM24.26239,6.90741l-.6568.75513c2.58453,2.08209,4.24438,5.26764,4.24438,8.83746,0,3.09833-1.25037,5.90796-3.26971,7.95801l.65948.75824c2.22943-2.23535,3.61023-5.3175,3.61023-8.71625,0-3.87006-1.79254-7.32642-4.58759-9.59259ZM26.23364,4.64117l-.65686.75513c3.21594,2.63373,5.27319,6.63196,5.27319,11.1037,0,4.00043-1.64874,7.61975-4.2981,10.22467l.65515.75323c2.8595-2.78955,4.64294-6.67719,4.64294-10.97791,0-4.77191-2.18988-9.04126-5.61633-11.85883ZM9.5036,7.58087l-.65686-.75513c-2.8559,2.2641-4.69672,5.75537-4.69672,9.67426,0,3.44757,1.42371,6.56622,3.70978,8.8089l.65515-.75323c-2.07599-2.05786-3.36493-4.90833-3.36493-8.05566,0-3.61865,1.70807-6.83936,4.35358-8.91913ZM7.53241,5.31464l-.65692-.75513C3.38843,7.37579,1.15002,11.6792,1.15002,16.5c0,4.34955,1.82684,8.27362,4.74353,11.0694l.65521-.75323c-2.70636-2.61145-4.39874-6.26691-4.39874-10.31616,0-4.52057,2.10577-8.55316,5.38239-11.18536ZM11.47479,9.84711l-.6897-.79291c-2.2356,1.72009-3.68512,4.41382-3.68512,7.4458,0,2.56055,1.03204,4.88281,2.69867,6.5799l.6925-.79614c-1.44623-1.50201-2.34113-3.53876-2.34113-5.78375,0-2.7168,1.30981-5.12708,3.32477-6.65289ZM22,16.5c0,3.03448-2.46552,5.5-5.5,5.5s-5.5-2.46552-5.5-5.5,2.46552-5.5,5.5-5.5,5.5,2.46545,5.5,5.5ZM21,16.5c0-2.48145-2.01855-4.5-4.5-4.5s-4.5,2.01855-4.5,4.5,2.01855,4.5,4.5,4.5,4.5-2.01855,4.5-4.5ZM15,19l4-2.5-4-2.5v5Z"/></svg>

<svg xmlns="http://www.w3.org/2000/svg" viewBox="0 0 32 32"><path d="M0 0h32v32H0z" style="fill:none"/><path d="M25.9 16.5a9.36 9.36 0 0 1-2.607 6.479l-.692-.797A8.3 8.3 0 0 0 24.85 16.5a8.33 8.33 0 0 0-3.216-6.571l.69-.793c2.174 1.723 3.576 4.38 3.576 7.364m-1.638-9.593-.656.756C26.19 9.745 27.85 12.93 27.85 16.5a11.3 11.3 0 0 1-3.27 7.958l.66.758a12.3 12.3 0 0 0 3.61-8.716c0-3.87-1.793-7.326-4.588-9.593m1.972-2.266-.657.755C28.793 8.03 30.85 12.028 30.85 16.5c0 4-1.649 7.62-4.298 10.225l.655.753c2.86-2.79 4.643-6.677 4.643-10.978 0-4.772-2.19-9.041-5.616-11.859m-16.73 2.94-.657-.755a12.31 12.31 0 0 0-.987 18.483l.655-.753A11.3 11.3 0 0 1 5.15 16.5c0-3.619 1.708-6.84 4.354-8.92M7.532 5.315l-.657-.755C3.388 7.376 1.15 11.68 1.15 16.5c0 4.35 1.827 8.274 4.744 11.07l.655-.754C3.842 24.205 2.15 20.55 2.15 16.5c0-4.52 2.106-8.553 5.382-11.185m3.943 4.532-.69-.793C8.55 10.774 7.1 13.468 7.1 16.5a9.37 9.37 0 0 0 2.699 6.58l.692-.796A8.32 8.32 0 0 1 8.15 16.5c0-2.717 1.31-5.127 3.325-6.653M22 16.5c0 3.034-2.466 5.5-5.5 5.5S11 19.534 11 16.5s2.466-5.5 5.5-5.5 5.5 2.465 5.5 5.5m-1 0c0-2.481-2.019-4.5-4.5-4.5S12 14.019 12 16.5s2.019 4.5 4.5 4.5 4.5-2.019 4.5-4.5M15 19l4-2.5-4-2.5z" style="fill:#231f20"/></svg>
